X:397
%%etbk:tnset id:115,pos:2,rep:3x,ant:
%%etbk:wsite http://www.thesession.org/tunes/display/559
%%etbk:pldat 2016-09-04T14:20,2015-12-24T15:54,2015-12-16T18:11,2014-09-21T11:53,2014-05-19T18:06,2014-05-11T12:28,2014-04-30T16:49,2014-03-27T18:16,2014-03-15T16:43,2014-02-10T18:17,2014-02-09T13:39,2014-02-07T15:27,2014-02-06T18:50,2013-10-02T16:59,2013-05-21T15:38,2013-05-15T17:40
T: Green Cottage, The
Z: Piano Box Version by Martin Fleischmann
H: Created 2013-02-19 /  Last Modified 2013-02-19
M: 2/4
L: 1/8
R: polka
K:Gdor
|: "gm"!3!B!1!G !3!GF | !1!D!3!G !1!G>A |  !3!BA !1!G!1!F | "dm"!3!Bc d>c | "gm"!3!B!1!G !3!GF |  !1!D!3!G !1!G2 | "dm"!5!d>c BA | "gm"G2 G2 :|
|: "gm"!2!d!4!g !3!ga | !3!g/a/g/f/ !1!d!2!c | !1!d!3!g "dm"!2!f!4!a | "gm"!3!g2 g>a | !5!b2 !4!ab/a/ | gf !1!d!2!c | !3!d!1!G !1!G/A/B/c/ |  !5!d4:|


